build/images/icon/icon-satisfactorily-factors.svg

<?xml version="1.0" encoding="UTF-8"?>
<svg width="40px" height="40px" viewBox="0 0 40 40" version="1.1" xmlns="http://www.w3.org/2000/svg" xmlns:xlink="http://www.w3.org/1999/xlink">
    <!-- Generator: sketchtool 54.1 (76490) - https://sketchapp.com -->
    <title>228AA890-4BB7-4B13-B5C6-7B04F61B2E72</title>
    <desc>Created with sketchtool.</desc>
    <g id="Page-1" stroke="none" stroke-width="1" fill="none" fill-rule="evenodd">
        <g id="CARDS/DESKTOP/GUIDES-HINT" transform="translate(-384.000000, -291.000000)">
            <g id="icon/stopfactor/XL/alert" transform="translate(384.000000, 291.000000)">
                <g id="Group">
                    <g id="Group-2">
                        <rect id="Rectangle" x="0" y="0" width="32" height="32"></rect>
                        <circle id="Oval" fill="#E6A345" cx="20" cy="20" r="20"></circle>
                        <path d="M17.6,10 L22.4,10 L21.5625,23.893918 L18.46875,23.893918 L17.6,10 Z M20.0325,31.6 C19.2741629,31.6 18.6458358,31.3483896 18.1475,30.8451613 C17.6491642,30.341933 17.4,29.721294 17.4,28.9832258 C17.4,28.2451576 17.6491642,27.63011 18.1475,27.1380645 C18.6458358,26.646019 19.2741629,26.4 20.0325,26.4 C20.7691703,26.4 21.3812476,26.646019 21.86875,27.1380645 C22.3562524,27.63011 22.6,28.2451576 22.6,28.9832258 C22.6,29.721294 22.3562524,30.341933 21.86875,30.8451613 C21.3812476,31.3483896 20.7691703,31.6 20.0325,31.6 Z" id="!" fill="#FFFFFF" fill-rule="nonzero"></path>
                    </g>
                </g>
            </g>
        </g>
    </g>
</svg>

<svg width="40" height="40" xmlns="http://www.w3.org/2000/svg"><g fill="none" fill-rule="evenodd"><path d="M0 0h32v32H0z"/><circle fill="#E6A345" cx="20" cy="20" r="20"/><path d="M17.6 10h4.8l-.837 13.894h-3.094L17.6 10zm2.432 21.6c-.758 0-1.386-.252-1.884-.755-.499-.503-.748-1.124-.748-1.862s.25-1.353.748-1.845 1.126-.738 1.884-.738c.737 0 1.35.246 1.837.738.487.492.731 1.107.731 1.845s-.244 1.359-.731 1.862c-.488.503-1.1.755-1.837.755z" fill="#FFF" fill-rule="nonzero"/></g></svg>
